X:541
T:Hey ho nobody's home
Z:Jack Campin, http://www.campin.me.uk/
F:Jack Campin's Nine-Note Tunebook
% last edit 03-02-2013
G:3-part round
M:C
L:1/4
Q:1/4=100
K:DMin
[V:1] G2  D2 |G    G/G/ D2      ||
[V:2] GG  AA |B/B/ B/B/ A2      ||
[V:3] d>c d>c|d>     c  d/c/B/A/||

